X: 11
T: the Worst Hotel in England
C: Noel Jackson Mar 2022
S: Tradtunes list 2022-3-29
L: 1/8
M: 2/4
Q: 1/4=120
K: G
|: (3GFE \
| "D"D2 D2 | "D"DE FE | "G"B<d de | "G"d2 (3Bcd | "C"ec "G"dB | "Am"cA "Em"BG | "C"e<d cB | "D"A2 (3DEF |
| "G"BA Bd | "D7"AG Ac | "Em"Bd gf | "C"e2(3def | "C"ge dB | "D7"A<G BA | "G"G2 G2 | "G"G2 :|
|: FG \
|"D7"AF DF | "D7"Ac BA | "G"BA Be | "G"d2 B2 | "A7"A^G AB | "A7"^cg fe | "D"d^c de | "D"d2 "D7"c2 |
| "G"BA Bd | "D7"AG Ac | "Em"Bd gf | "C"e2 (3def | "C"ge dB | "D7"A<G BA | "G"G2 G2 | "G"G2 :|
